X: 35970
T: Sarah's Song
R: waltz
M: 3/4
K: Dmajor
A f>g|:"D" f3 e d>c|"G" c/ B3 B/ g>f|"Em" e3 d e>f|"A" A3 A f>g|
"D" f3 e d>c|"G" c/ B3 B/ "Em" g>B|"A" c3 d e>d|1 "D" d3 Af>g:|2 "D" d3 A "A" a>g||
"Bm" f3 e/d/ "Em" g>B|"A" c/ A3 A/ "Em" G>A|"G" B3 d "Em" e>f|"A" A3 A a>g|
"Bm" f3 e/d/ "Em" g>B|"A" c/ A3 A/ "Em" G>A|"G" B3 d "A" e>d|"D" d3 A "A" a>g|
"Bm" f3 e/d/ "Em" g>B|c/ "A" A3 A/ "Em" G>A|"G" B3 d "Em" e>f|"A" A3 A f>g|
"D" f3 e d>c|"G" c/ B3 B/ "Em" g>B|"A" c3 d e>d|"D" d3 z z2||

